X:2802
T:Celtic Cousins
R:reel
C:Dougie MacDonald and Howie MacDonald
O:20th century Cape Breton
N:Bookings,Mechanicals etc.
N:..... Dougie MacDonald <dougie@cranfordpub.com>
N:..... Howie MacDonald <howie@cranfordpub.com>
D:Fiddle Tunes
B:Cape Breton Fiddler Dougie MacDonald:Fiddle Tunes, 1993
Z:This abc transcription is for personal use only,
Z:provided this notice remains attached.
Z:Used by permission of the composers.
Z:Paul Stewart Cranford <psc@cranfordpub.com>
Q:333
L:1/8
M:C|
K:F
F2 ({G}F)E FGAB|cFdF cFAG|F2 ({G}F)E FAGF|EC C/C/C GCEG|!
F2 ({G}F)E FGAB|cFdF cFAc|Bdgb Acfa|[1({b}a)gfe fdcA:|[2({b}a)gfe f2||
ec|dD D/D/D ({e}d)^cde|faga fdcd|cE E/E/E ({d}c)=Bcd|eg^fg ecAc|!
dD D/D/D ({e}d)^cde|faga fdcd|cE E/E/E GEGc|AcGE D/D/D d^c|!
dD D/D/D ({e}d)^cde|faga fdcd|cE E/E/E ({d}c)=Bcd|eg^fg age^c|!
dD D/D/D ({e}d)cde|faga fdcd|Bdgb Acfa|agfe fdcA|]!


